images_breeze_svg/cmd/32/savebackground.svg

<svg viewBox="0 0 32 32" xmlns="http://www.w3.org/2000/svg"><path d="m5 3v26h11v-7l-2-2-8 8v-24h20v14.867188l1 1v-16.867188zm6 3c-1.6568542 0-3 1.3431458-3 3 0 1.656854 1.3431458 3 3 3 1.656854 0 3-1.343146 3-3 0-1.6568542-1.343146-3-3-3zm10 11-1 1h1 1zm-4 2v10h10v-2-1-4.71875l-2.28125-2.28125h-.03125-.6875-3-1zm1 1h1v3h5v-1-2h.28125l1.71875 1.71875v.28125 6h-1v-2h-6v2h-1zm2 0h2v2h-2zm0 7h4v1h-4z" fill="#4d4d4d"/></svg>

<?xml version="1.0" encoding="UTF-8" standalone="no"?>
<svg
   xmlns:dc="http://purl.org/dc/elements/1.1/"
   xmlns:cc="http://creativecommons.org/ns#"
   xmlns:rdf="http://www.w3.org/1999/02/22-rdf-syntax-ns#"
   xmlns:svg="http://www.w3.org/2000/svg"
   xmlns="http://www.w3.org/2000/svg"
   xmlns:sodipodi="http://sodipodi.sourceforge.net/DTD/sodipodi-0.dtd"
   xmlns:inkscape="http://www.inkscape.org/namespaces/inkscape"
   viewBox="0 0 32 32"
   version="1.1"
   id="svg6"
   sodipodi:docname="savebackground.svg"
   inkscape:version="0.92.4 (unknown)"
   inkscape:export-filename="/home/rizmut/Dokumen/Rizmut/Github/tmp/breeze/cmd/32/savebackground.png"
   inkscape:export-xdpi="96"
   inkscape:export-ydpi="96">
  <metadata
     id="metadata12">
    <rdf:RDF>
      <cc:Work
         rdf:about="">
        <dc:format>image/svg+xml</dc:format>
        <dc:type
           rdf:resource="http://purl.org/dc/dcmitype/StillImage" />
        <dc:title></dc:title>
      </cc:Work>
    </rdf:RDF>
  </metadata>
  <defs
     id="defs10" />
  <sodipodi:namedview
     pagecolor="#ffffff"
     bordercolor="#666666"
     borderopacity="1"
     objecttolerance="10"
     gridtolerance="10"
     guidetolerance="10"
     inkscape:pageopacity="0"
     inkscape:pageshadow="2"
     inkscape:window-width="1360"
     inkscape:window-height="714"
     id="namedview8"
     showgrid="true"
     inkscape:zoom="8"
     inkscape:cx="1.6688884"
     inkscape:cy="2.6378661"
     inkscape:window-x="0"
     inkscape:window-y="28"
     inkscape:window-maximized="1"
     inkscape:current-layer="svg6"
     inkscape:snap-global="false">
    <inkscape:grid
       type="xygrid"
       id="grid822" />
  </sodipodi:namedview>
  <path
     style="fill:#4d4d4d"
     d="M 5 3 L 5 29 L 16 29 L 16 22 L 14 20 L 6 28 L 6 4 L 26 4 L 26 18.867188 L 27 19.867188 L 27 3 L 5 3 z M 11 6 C 9.3431458 6 8 7.3431458 8 9 C 8 10.656854 9.3431458 12 11 12 C 12.656854 12 14 10.656854 14 9 C 14 7.3431458 12.656854 6 11 6 z M 21 17 L 20 18 L 21 18 L 22 18 L 21 17 z M 17 19 L 17 29 L 27 29 L 27 27 L 27 26 L 27 21.28125 L 24.71875 19 L 24.6875 19 L 24 19 L 21 19 L 20 19 L 17 19 z M 18 20 L 19 20 L 19 23 L 24 23 L 24 22 L 24 20 L 24.28125 20 L 26 21.71875 L 26 22 L 26 28 L 25 28 L 25 26 L 19 26 L 19 28 L 18 28 L 18 20 z M 20 20 L 22 20 L 22 22 L 20 22 L 20 20 z M 20 27 L 24 27 L 24 28 L 20 28 L 20 27 z "
     id="path2" />
</svg>
